places/24/folder-templates.svg

<?xml version="1.0" encoding="UTF-8" standalone="no"?>
<!-- Created with Inkscape (http://www.inkscape.org/) -->

<svg
   xmlns:dc="http://purl.org/dc/elements/1.1/"
   xmlns:cc="http://creativecommons.org/ns#"
   xmlns:rdf="http://www.w3.org/1999/02/22-rdf-syntax-ns#"
   xmlns:svg="http://www.w3.org/2000/svg"
   xmlns="http://www.w3.org/2000/svg"
   xmlns:sodipodi="http://sodipodi.sourceforge.net/DTD/sodipodi-0.dtd"
   xmlns:inkscape="http://www.inkscape.org/namespaces/inkscape"
   id="svg13094"
   height="24"
   width="24"
   version="1.1"
   inkscape:version="0.48.3.1 r9886"
   sodipodi:docname="folder-templates.svg">
  <defs
     id="defs3009" />
  <sodipodi:namedview
     pagecolor="#ffffff"
     bordercolor="#666666"
     borderopacity="1"
     objecttolerance="10"
     gridtolerance="10"
     guidetolerance="10"
     inkscape:pageopacity="0"
     inkscape:pageshadow="2"
     inkscape:window-width="1920"
     inkscape:window-height="1033"
     id="namedview3007"
     showgrid="true"
     inkscape:zoom="29.5"
     inkscape:cx="7.9819769"
     inkscape:cy="10.8359"
     inkscape:window-x="-10"
     inkscape:window-y="25"
     inkscape:window-maximized="1"
     inkscape:current-layer="svg13094">
    <inkscape:grid
       type="xygrid"
       id="grid2982"
       empspacing="5"
       visible="true"
       enabled="true"
       snapvisiblegridlinesonly="true" />
  </sodipodi:namedview>
  <metadata
     id="metadata13099">
    <rdf:RDF>
      <cc:Work
         rdf:about="">
        <dc:format>image/svg+xml</dc:format>
        <dc:type
           rdf:resource="http://purl.org/dc/dcmitype/StillImage" />
        <dc:title />
      </cc:Work>
    </rdf:RDF>
  </metadata>
  <path
     sodipodi:nodetypes="ccscccccccscccccccccccccccccccccccccccccccccsssss"
     inkscape:connector-curvature="0"
     id="path2983"
     d="M 7,3 6.375,5.46875 C 5.544833,6.002338 5,6.939824 5,8 5,8.522754 5.139922,9.009536 5.375,9.4375 L 3,21 l 1,0 4,-9 4,9 1,0 L 10.625,9.4375 C 10.860078,9.009536 11,8.522754 11,8 11,6.939824 10.455167,6.002338 9.625,5.46875 L 9,3 z m 8,0 0,18 6,0 0,-1 -2,0 0,-1 2,0 0,-1 0,-1 -3,0 0,-1 3,0 0,-2 -2,0 0,-1 2,0 0,-2 -3,0 0,-1 3,0 0,-2 -2,0 0,-1 2,0 0,-2 -3,0 0,-1 3,0 0,-1 z M 8,7 C 8.5522847,7 9,7.4477153 9,8 9,8.5522847 8.5522847,9 8,9 7.4477153,9 7,8.5522847 7,8 7,7.4477153 7.4477153,7 8,7 z"
     style="fill:#27303a;fill-opacity:0.753280819999999968" />
  <path
     style="font-size:medium;font-style:normal;font-variant:normal;font-weight:normal;font-stretch:normal;text-indent:0;text-align:start;text-decoration:none;line-height:normal;letter-spacing:normal;word-spacing:normal;text-transform:none;direction:ltr;block-progression:tb;writing-mode:lr-tb;text-anchor:start;baseline-shift:baseline;color:#000000;fill:#f1f3f5;fill-opacity:0.90288714000000003;fill-rule:nonzero;stroke:none;stroke-width:2;marker:none;visibility:visible;display:inline;overflow:visible;enable-background:accumulate;font-family:Sans;-inkscape-font-specification:Sans"
     d="M 6.21875 2 L 6.03125 2.75 L 5.4375 5.03125 C 4.5913543 5.7689242 4 6.8018867 4 8 C 4 8.5178308 3.9465457 8.9574855 4.125 9.40625 L 1.78125 20.8125 L 1.78125 22 L 3 22 L 4 22 L 4.65625 22 L 5.15625 21.40625 L 8 14.6875 L 10.84375 21.40625 L 11.34375 22 L 12 22 L 13 22 L 13 21 L 12 21 L 8 12 L 4 21 L 3 21 L 5.375 9.4375 C 5.139922 9.009536 5 8.522754 5 8 C 5 6.939824 5.544833 6.002338 6.375 5.46875 L 7 3 L 9 3 L 9.625 5.46875 C 10.455167 6.002338 11 6.939824 11 8 C 11 8.522754 10.860078 9.009536 10.625 9.4375 L 13 21 L 13 14.875 L 11.875 9.40625 C 12.053454 8.9574855 12 8.5178308 12 8 C 12 6.8018867 11.408646 5.7689242 10.5625 5.03125 L 9.96875 2.75 L 9.78125 2 L 9 2 L 7 2 L 6.21875 2 z M 14 2 L 14 3 L 14 9 L 14 19.75 L 14 22 L 14.21875 22 L 15 22 L 21 22 L 22 22 L 22 21 L 22 20 L 22 19 L 22 18 L 22 17 L 22 16 L 22 14 L 22 13 L 22 11 L 22 10 L 22 8 L 22 7 L 22 5 L 22 4 L 22 3 L 22 2 L 21 2 L 15 2 L 14 2 z M 15 3 L 21 3 L 21 4 L 18 4 L 18 5 L 21 5 L 21 7 L 19 7 L 19 8 L 21 8 L 21 10 L 18 10 L 18 11 L 21 11 L 21 13 L 19 13 L 19 14 L 21 14 L 21 16 L 18 16 L 18 17 L 21 17 L 21 18 L 21 19 L 19 19 L 19 20 L 21 20 L 21 21 L 15 21 L 15 3 z M 8 7 C 7.4477153 7 7 7.4477153 7 8 C 7 8.5522847 7.4477153 9 8 9 C 8.5522847 9 9 8.5522847 9 8 C 9 7.4477153 8.5522847 7 8 7 z "
     id="path3644" />
</svg>

<?xml version="1.0" encoding="UTF-8"?>
<svg id="a" width="24" height="24" version="1.1" xmlns="http://www.w3.org/2000/svg" xmlns:cc="http://creativecommons.org/ns#" xmlns:dc="http://purl.org/dc/elements/1.1/" xmlns:rdf="http://www.w3.org/1999/02/22-rdf-syntax-ns#">
	<metadata id="d">
		<rdf:RDF>
			<cc:Work rdf:about="">
				<dc:format>image/svg+xml</dc:format>
				<dc:type rdf:resource="http://purl.org/dc/dcmitype/StillImage"/>
				<dc:title/>
			</cc:Work>
		</rdf:RDF>
	</metadata>
	<defs id="e">
		<style id="current-color-scheme" type="text/css">.ColorScheme-Text {color:#090d11;}.ColorScheme-Background{color:#ffffff;}</style>
	</defs>
	<path id="c" class="ColorScheme-Text" d="m7 3-0.625 2.4688c-0.83017 0.53359-1.375 1.4711-1.375 2.5312 0 0.52275 0.13992 1.0095 0.375 1.4375l-2.375 11.562h1l4-9 4 9h1l-2.375-11.562c0.23508-0.42796 0.375-0.91475 0.375-1.4375 0-1.0602-0.54483-1.9977-1.375-2.5312l-0.625-2.4688zm8 0v18h6v-1h-2v-1h2v-2h-3v-1h3v-2h-2v-1h2v-2h-3v-1h3v-2h-2v-1h2v-2h-3v-1h3v-1zm-7 4c0.55228 0 1 0.44772 1 1s-0.44772 1-1 1-1-0.44772-1-1 0.44772-1 1-1z" style="fill-opacity:.75;fill:currentColor"/>
	<path id="b" class="ColorScheme-Background" d="m6.2188 2-0.1875 0.75-0.59375 2.2812c-0.84615 0.73767-1.4375 1.7706-1.4375 2.9688 0 0.51783-0.053454 0.95749 0.125 1.4062l-2.3438 11.406v1.1875h2.875l0.5-0.59375 2.8438-6.7188 2.8438 6.7188 0.5 0.59375h1.6562v-1h-1l-4-9-4 9h-1l2.375-11.562c-0.23508-0.42796-0.375-0.91475-0.375-1.4375 0-1.0602 0.54483-1.9977 1.375-2.5312l0.625-2.4688h2l0.625 2.4688c0.83017 0.53359 1.375 1.4711 1.375 2.5312 0 0.52275-0.13992 1.0095-0.375 1.4375l2.375 11.562v-6.125l-1.125-5.4688c0.17845-0.44876 0.125-0.88842 0.125-1.4062 0-1.1981-0.59135-2.2311-1.4375-2.9688l-0.59375-2.2812-0.1875-0.75h-2.7812zm7.7812 0v20h8v-20h-7zm1 1h6v1h-3v1h3v2h-2v1h2v2h-3v1h3v2h-2v1h2v2h-3v1h3v2h-2v1h2v1h-6zm-7 4c-0.55228 0-1 0.44772-1 1s0.44772 1 1 1 1-0.44772 1-1-0.44772-1-1-1z" style="fill-opacity:.5;fill:currentColor"/>
</svg>
